X:555
T: Mick O'Grady's
C: BB
R: reel
Q: 1/8=350
M: 4/4
L: 1/8
K: D
A|"D"FEFG AB (3BAB|"G"GB (3BAB "D"AddA|"D"FEFG ABcA|"Bm"dBAF "G"G2 AG |
"D"FEFG AB (3BAB|"D"Ad (3dcd "Em"effg|"D"a2 fa "Bm"bafe|"D"dFFA "G"B3 :|
c|"D"defe defg|"D"a2 fa "Bm"bafe|"D"fddc "Bm"B2 fB|"D"ABde fddc |
"D"defe defg|"F#m"affe "Bm"dBBF|"G"GB (3BAB "D"Ad (3dcd|"A7"AGEF "D"D3 :|
%%%%%%%%%%%%%%%%%%%%%%%%%%%%%%%%%%%%%%%%%%%
